;PYCAM-META-DATA: Filename: /home/gustavo/Downloads/i_luv_fga.dxf
;PYCAM-META-DATA: Timestamp: 2017-07-03 23:34:01.157696
;PYCAM-META-DATA: Version: 0.5.1
;Estimated machine time: 6 minutes
G40 (disable tool radius compensation)
G49 (disable tool length compensation)
G80 (cancel modal motion)
G54 (select coordinate system 1)
G90 (disable incremental moves)
G21 (metric)
G61 (exact path mode)
F200.00000
S1000.00000
;PYCAM_TOOLPATH_SETTINGS: START
;[Bounds]
;maxz = 0.0
;maxx = 34.1559486657
;maxy = 164.0
;minx = -2.19599533325
;miny = -14.0
;minz = 0.0
;
;[Tool]
;torus_radius = 0.2
;speed = 1000.0
;shape = ToroidalCutter
;tool_radius = 1.0
;feedrate = 200.0
;
;[Process]
;engrave_offset = 0.0
;step_down = 1.5
;generator = EngraveCutter
;postprocessor = SimpleCutter
;milling_style = conventional
;material_allowance = 0.0
;pocketing_type = none
;path_direction = x
;
;PYCAM_TOOLPATH_SETTINGS: END
T2 M6
G0 Z25.0000
M3 (start spindle)
G04 P3 (wait for 3 seconds)
 X31.9600 Y0.0000
G1 Z0.0000
 Y20.0000
G0 Z25.0000
 Y10.0000
G1 Z0.0000
 X1.9600
G0 Z25.0000
 Y0.0000
G1 Z0.0000
 Y20.0000
G0 Z25.0000
 X15.9482 Y23.3870
G1 Z0.0000
 X14.7829 Y22.3225
 X13.4412 Y21.4911
 X11.9692 Y20.9215
 X10.4174 Y20.6331
 X8.8390 Y20.6358
 X7.2883 Y20.9296
 X5.8183 Y21.5044
 X4.4795 Y22.3404
 X3.3179 Y23.4090
 X2.3733 Y24.6735
 X1.6781 Y26.0906
 X1.1184 Y28.1397
 X0.9630 Y30.2583
 X1.2177 Y32.3672
 X1.8730 Y34.3878
 X2.9045 Y36.2448
 X4.2736 Y37.8690
 X5.9295 Y39.1996
 X7.8102 Y40.1872
 X9.8456 Y40.7949
 X11.9600 Y41.0000
 X9.7690 Y41.2017
 X7.6516 Y41.8001
 X5.6791 Y42.7750
 X3.9178 Y44.0936
 X2.4268 Y45.7117
 X1.2563 Y47.5748
 X0.4457 Y49.6203
 X0.0222 Y51.7794
 X0.0000 Y53.9795
 X0.3799 Y56.1468
 X1.1491 Y58.2082
 X2.2817 Y60.0945
 X3.3035 Y61.2519
 X4.5174 Y62.2058
 X5.8834 Y62.9251
 X7.3568 Y63.3861
 X8.8892 Y63.5737
 X10.4303 Y63.4817
 X11.9295 Y63.1131
 X13.3376 Y62.4801
 X14.6084 Y61.6034
 X15.7001 Y60.5118
G0 Z25.0000
 X15.9482 Y23.3870
G1 Z0.0000
 X31.9600 Y41.0000
 X15.7001 Y60.5118
G0 Z25.0000
 X17.1208 Y70.0000
G1 Z0.0000
 Y80.0000
G0 Z25.0000
 X31.9600 Y70.0000
G1 Z0.0000
 X2.2817
 Y90.0000
G0 Z25.0000
 Y120.0000
G1 Z0.0000
 Y100.0000
 X31.9600
 Y120.0000
 X19.9600
 Y108.0000
G0 Z25.0000
 X16.9600 Y130.0000
G1 Z0.0000
 Y150.0000
G0 Z25.0000
 X31.9600 Y130.0000
G1 Z0.0000
 X17.2660
 X14.6187 Y130.2307
 X12.0513 Y130.9157
 X9.6411 Y132.0344
 X7.4606 Y133.5532
 X5.5757 Y135.4262
 X4.0431 Y137.5969
 X2.9091 Y140.0000
 X4.0431 Y142.4031
 X5.5757 Y144.5738
 X7.4606 Y146.4468
 X9.6411 Y147.9656
 X12.0513 Y149.0843
 X14.6187 Y149.7693
 X17.2660 Y150.0000
 X31.9600
G0 Z25.0000
M5 (stop spindle)
G04 P3 (wait for 3 seconds)
G0 Z25.0000
M2 (end program)
