;PYCAM-META-DATA: Filename: /home/gustavo/Downloads/logo_2d.dxf
;PYCAM-META-DATA: Timestamp: 2017-06-21 17:15:33.048687
;PYCAM-META-DATA: Version: 0.5.1
;Estimated machine time: 23 minutes
G40 (disable tool radius compensation)
G49 (disable tool length compensation)
G80 (cancel modal motion)
G54 (select coordinate system 1)
G90 (disable incremental moves)
G21 (metric)
G61 (exact path mode)
F200.00000
S1000.00000
;PYCAM_TOOLPATH_SETTINGS: START
;[Bounds]
;maxz = 0.0
;maxx = 346.5828757
;maxy = 290.0874323
;minx = -30.4116327
;miny = -24.9170393
;minz = 0.0
;
;[Tool]
;torus_radius = 0.2
;speed = 1000.0
;shape = ToroidalCutter
;tool_radius = 1.0
;feedrate = 200.0
;
;[Process]
;engrave_offset = 0.0
;step_down = 1.5
;generator = EngraveCutter
;postprocessor = SimpleCutter
;milling_style = conventional
;material_allowance = 0.0
;pocketing_type = none
;path_direction = x
;
;PYCAM_TOOLPATH_SETTINGS: END
T2 M6
G0 Z25.0000
M3 (start spindle)
G04 P3 (wait for 3 seconds)
 X57.1046 Y263.5034
G1 Z0.0000
 X46.5755 Y260.6169
 X37.3020 Y256.9647
 X29.4425 Y252.6296
 X23.1745 Y247.6854
 X21.6049 Y246.0173
 X19.5752 Y243.5263
 X17.4653 Y240.7221
 X15.5915 Y238.0000
 X9.3353 Y226.4211
 X5.5186 Y214.5616
 X3.3755 Y199.3604
 X2.3135 Y176.2740
 X2.0475 Y162.7763
 X2.0970 Y155.5685
 X2.3733 Y151.1344
 X3.1054 Y149.3730
 X4.7187 Y148.4397
 X8.1854 Y148.0756
 X14.4428 Y148.0228
 X28.9339 Y148.3811
 X39.2388 Y148.7363
 X47.1924 Y149.1730
 X53.4528 Y149.6503
 X54.6862 Y150.1545
 X55.2333 Y150.9473
 X55.6437 Y152.4825
 X55.9125 Y154.4977
 X56.0000 Y156.8987
 X56.3407 Y164.9480
 X57.3602 Y172.9227
 X58.9230 Y180.0831
 X60.9168 Y185.5896
 X63.9386 Y190.7250
 X67.4239 Y194.0487
 X71.7961 Y195.8811
 X77.5000 Y196.4891
 X82.6808 Y195.9976
 X86.7713 Y194.5092
 X90.0388 Y191.8822
 X92.7481 Y187.9870
 X94.2969 Y184.0477
 X94.5876 Y180.4131
 X93.5845 Y176.2268
 X90.9922 Y170.3326
 X87.0832 Y164.3940
 X81.3103 Y158.6871
 X71.7948 Y151.4694
 X54.0000 Y139.4675
 X31.0552 Y123.4076
 X17.6222 Y111.3931
 X9.4143 Y99.7443
 X4.0588 Y85.6956
 X1.9268 Y75.3505
 X0.7079 Y64.6683
 X0.1712 Y51.0296
 X0.1889 Y30.5000
 X0.5000 Y0.5000
 X144.5000
 Y68.5000
 X105.7500 Y68.7617
 X88.6148 Y68.9365
 X76.7088 Y69.2162
 X67.4856 Y69.5497
 X67.0000 Y70.0546
 X67.8349 Y72.1530
 X72.6696 Y77.0326
 X78.2131 Y81.9952
 X83.5000 Y85.9451
 X87.1015 Y88.2391
 X92.4094 Y91.3993
 X98.3182 Y94.7952
 X104.0000 Y97.9370
 X121.0897 Y107.8369
 X132.6699 Y116.2347
 X140.8222 Y124.6043
 X146.9742 Y134.2058
 X150.4459 Y142.3844
 X152.2089 Y149.7340
 X152.8762 Y159.4146
 X152.7503 Y177.3931
 X152.1081 Y195.4993
 X150.7941 Y206.5987
 X148.3043 Y215.3811
 X143.9469 Y224.8363
 X135.2126 Y238.3890
 X125.0493 Y249.3473
 X113.6723 Y257.4784
 X101.3290 Y262.6350
 X93.1699 Y264.0586
 X79.4562 Y264.6704
 X65.6829 Y264.5910
G0 Z25.0000
 X98.5000 Y256.4310
G1 Z0.0000
 X105.2921 Y254.1178
 X111.4166 Y250.9957
 X117.1130 Y246.9118
 X122.6260 Y241.7193
 X132.0792 Y230.2419
 X138.5888 Y218.9391
 X142.7509 Y206.5601
 X145.1072 Y191.8279
 X145.7769 Y172.5279
 X143.6301 Y157.8008
 X138.3720 Y145.8553
 X129.6160 Y135.1981
 X124.3966 Y130.7239
 X118.5345 Y126.5648
 X110.8475 Y121.9263
 X99.6129 Y115.7842
 X93.9340 Y112.7372
 X87.7082 Y109.3492
 X81.8694 Y106.1331
 X77.5000 Y103.6779
 X68.5000 Y98.5505
 X45.5000 Y98.4500
 X36.5603 Y98.3552
 X28.7453 Y98.1506
 X22.0927 Y97.8867
 X20.7606 Y97.5718
 X19.8703 Y96.8543
 X18.3235 Y94.6294
 X16.6095 Y91.8240
 X14.9068 Y88.6471
 X12.1303 Y83.5056
 X11.4761 Y83.6847
 X12.0196 Y86.5661
 X14.9724 Y94.0967
 X20.0506 Y103.2074
 X27.5308 Y111.5925
 X39.2375 Y121.0740
 X58.5853 Y134.2796
 X79.0614 Y148.1994
 X90.1528 Y157.3140
 X96.7285 Y165.4024
 X101.0239 Y174.8129
 X102.8197 Y183.6255
 X102.7673 Y192.3333
 X100.9045 Y200.2658
 X97.3474 Y206.7889
 X91.3690 Y211.7750
 X82.8660 Y214.6100
 X73.5418 Y214.8807
 X65.1684 Y212.3966
 X58.3998 Y207.3097
 X53.5715 Y199.9572
 X50.3559 Y189.4917
 X48.4463 Y174.7500
 X47.8294 Y167.0000
 X8.7167
 X9.4052 Y179.2500
 X11.2344 Y201.5929
 X14.0285 Y216.8160
 X18.3841 Y228.4429
 X25.0029 Y238.8845
 X31.7409 Y245.4548
 X40.7386 Y250.9958
 X51.4975 Y255.2488
 X63.5000 Y257.9700
 X70.9424 Y258.5811
 X81.3439 Y258.4075
 X91.6213 Y257.6788
G0 Z25.0000
 X169.0352 Y262.0657
G1 Z0.0000
 X167.9728 Y257.8321
 X167.9538 Y132.5000
 X167.9728 Y7.1679
 X169.0352 Y2.9343
 X170.8074 Y1.7233
 X176.5715 Y1.2653
 X187.4790 Y1.0386
 X218.4987 Y1.0000
 X266.9271
 X271.8854 Y6.9580
 X280.3626 Y17.9261
 X288.4693 Y30.0147
 X295.7817 Y42.5440
 X301.8721 Y54.8353
 X308.8550 Y73.2115
 X313.1115 Y91.2492
 X315.3255 Y112.6765
 X316.0000 Y142.2276
 X315.3660 Y166.6453
 X313.3093 Y184.7151
 X309.3902 Y200.0905
 X303.0231 Y215.7339
 X296.5141 Y227.7258
 X288.6677 Y239.4468
 X280.0487 Y250.1279
 X271.2241 Y258.9880
 X265.6008 Y264.0000
 X217.8356
 X187.2524 Y263.9614
 X176.4856 Y263.7345
 X170.8005 Y263.2749
G0 Z25.0000
 X262.9354 Y256.5334
G1 Z0.0000
 X266.8093 Y253.6885
 X273.3955 Y246.7197
 X280.2459 Y238.6664
 X285.9318 Y231.0000
 X294.9522 Y216.0215
 X301.2407 Y201.4501
 X305.4206 Y185.5504
 X308.0583 Y166.5000
 X308.7431 Y149.2456
 X307.9107 Y127.4274
 X306.0837 Y106.6800
 X303.4529 Y94.7527
 X302.9241 Y93.2378
 X302.5909 Y92.5337
 X302.4662 Y92.5666
 X302.5147 Y93.1705
 X302.3724 Y96.2799
 X300.7792 Y97.8650
 X296.6179 Y98.4456
 X282.8459 Y98.5194
 X263.7289 Y98.5000
 X256.8179 Y92.3281
 X253.7058 Y89.7249
 X250.5196 Y87.4071
 X247.5634 Y85.5710
 X245.2034 Y84.4912
 X239.2687 Y83.1165
 X229.4527 Y82.2706
 X219.4810 Y81.8809
 X216.6639 Y82.8640
 X216.0864 Y83.6936
 X215.5078 Y85.6007
 X215.0082 Y87.9901
 X214.6687 Y90.6450
 X214.3870 Y93.2330
 X214.0523 Y95.5128
 X213.7060 Y97.3962
 X213.4410 Y97.8923
 X212.8773 Y98.1390
 X207.7496 Y98.3279
 X201.8301 Y98.4696
 X194.9192 Y98.5219
 X177.0050 Y98.5438
 X176.5166 Y95.5219
 X176.3048 Y94.1477
 X176.0714 Y92.5064
 X175.8528 Y90.8671
 X175.6870 Y89.5000
 X175.5512 Y89.5075
 X175.5064 Y112.4969
 X175.4969 Y139.4175
 X175.5514 Y172.0000
 X175.6390 Y204.8021
 X175.7323 Y232.4578
 X175.8282 Y257.5332
 X175.8785 Y257.7500
 X176.0417 Y257.8529
 X188.3164 Y257.9266
 X201.9174 Y257.9820
 X218.0497 Y258.0000
 X240.8403 Y257.9465
 X252.7308 Y257.7244
 X260.0597 Y257.3427
G0 Z25.0000
 X216.6667 Y189.3333
G1 Z0.0000
 X216.3937 Y188.6873
 X216.1958 Y174.2599
 X216.0480 Y158.0630
 X216.0000 Y138.9558
 X216.0472 Y110.7142
 X216.2640 Y97.6495
 X216.6158 Y89.7711
 X217.5219 Y87.9819
 X220.4145 Y86.9560
 X229.7938 Y87.2608
 X239.1441 Y88.0734
 X245.1246 Y89.4701
 X251.2724 Y92.9134
 X257.6855 Y99.1094
 X263.3826 Y106.8601
 X267.4142 Y115.0786
 X268.3192 Y118.4799
 X268.7790 Y122.8108
 X268.9381 Y129.4913
 X268.8204 Y142.0786
 X268.5000 Y164.5000
 X265.1267 Y171.2215
 X261.8402 Y176.5745
 X257.2610 Y182.0766
 X252.4276 Y186.6795
 X248.4912 Y189.0033
 X244.7448 Y189.7428
 X231.8900 Y189.9792
 X218.4300 Y190.0618
G0 Z25.0000
 X249.8516 Y166.6481
G1 Z0.0000
 X255.2799 Y159.7669
 X258.8237 Y151.6766
 X260.6196 Y141.8098
 X260.7967 Y129.5349
 X260.4306 Y123.7748
 X259.8800 Y120.0063
 X258.9309 Y116.7585
 X257.2957 Y112.9149
 X255.8508 Y110.1385
 X254.0220 Y107.0960
 X252.1116 Y104.2519
 X250.4301 Y102.1142
 X246.3874 Y98.2595
 X242.1871 Y95.8017
 X237.2077 Y94.4654
 X230.7500 Y94.0220
 X223.0000 Y94.0000
 Y170.8672
 X225.7500 Y171.1836
 X227.3281 Y171.2774
 X230.2493 Y171.2602
 X233.6706 Y171.1682
 X237.2050 Y171.0000
 X242.7149 Y170.5943
 X245.2687 Y170.0487
 X247.2338 Y168.9661
G0 Z25.0000
 X99.2186 Y62.5434
G1 Z0.0000
 X126.5167 Y63.0029
 X134.3352 Y62.6623
 X137.6565 Y61.2788
 X138.9694 Y58.5000
 X138.9346 Y57.6332
 X138.7759 Y57.2968
 X138.5345 Y57.2989
 X138.1829 Y57.7384
 X137.0268 Y58.4129
 X129.0029 Y58.7674
 X117.3283 Y59.0529
 X97.4482 Y59.2384
 X57.5000 Y59.5000
 X57.1702 Y61.8279
 X57.0311 Y63.1834
 X57.2439 Y63.5959
 X57.7282 Y63.6270
 X59.0341 Y62.9818
 X61.2265 Y62.3949
 X69.0943 Y62.2275
 X80.6062 Y62.2405
G0 Z25.0000
M5 (stop spindle)
G04 P3 (wait for 3 seconds)
G0 Z25.0000
M2 (end program)
