;PYCAM-META-DATA: Filename: /home/gustavo/Downloads/Xmaqcnc.dxf
;PYCAM-META-DATA: Timestamp: 2017-06-21 19:24:11.826097
;PYCAM-META-DATA: Version: 0.5.1
;Estimated machine time: 12 minutes
G40 (disable tool radius compensation)
G49 (disable tool length compensation)
G80 (cancel modal motion)
G54 (select coordinate system 1)
G90 (disable incremental moves)
G21 (metric)
G61 (exact path mode)
F200.00000
S1000.00000
;PYCAM_TOOLPATH_SETTINGS: START
;[Bounds]
;maxz = 0.0
;maxx = 400.955383
;maxy = 115.3863047
;minx = -35.086853
;miny = -9.1260277
;minz = 0.0
;
;[Tool]
;torus_radius = 0.25
;speed = 1000.0
;shape = CylindricalCutter
;tool_radius = 1.5
;feedrate = 200.0
;
;[Process]
;engrave_offset = 0.0
;step_down = 3.0
;generator = EngraveCutter
;postprocessor = SimpleCutter
;milling_style = conventional
;material_allowance = 0.0
;pocketing_type = none
;path_direction = x
;
;PYCAM_TOOLPATH_SETTINGS: END
T1 M6
G0 Z25.0000
M3 (start spindle)
G04 P3 (wait for 3 seconds)
 X0.0000 Y6.2603
G1 Z0.0000
 X38.0000 Y100.2603
G0 Z25.0000
 X0.0000
G1 Z0.0000
 X38.0000 Y6.2603
G0 Z25.0000
 X50.0000
G1 Z0.0000
 Y76.2603
 X69.0000 Y46.2603
 X88.0000 Y76.2603
G0 Z25.0000
 Y6.2603
G1 Z0.0000
 Y76.2603
G0 Z25.0000
 X100.0000 Y31.2603
G1 Z0.0000
 X118.0000
G0 Z25.0000
 X100.0000 Y6.2603
G1 Z0.0000
 Y46.2603
 X118.0000
 Y6.2603
G0 Z25.0000
 X130.0000
G1 Z0.0000
 Y46.2603
 X148.0000
 Y6.2603
 X130.0000
G0 Z25.0000
 X143.1867 Y11.3837
G1 Z0.0000
 X153.8813 Y0.0000
G0 Z25.0000
 X178.0000 Y46.2603
G1 Z0.0000
 X160.0000
 Y6.2603
 X178.0000
G0 Z25.0000
 X190.0000
G1 Z0.0000
 Y46.2603
 X208.0000 Y6.2603
 Y46.2603
G0 Z25.0000
 X238.0000 Y6.2603
G1 Z0.0000
 X220.0000
 Y46.2603
 X238.0000
G0 Z25.0000
 X359.9950 Y9.4353
G1 Z0.0000
 X360.4978 Y6.2603
 X361.0007 Y9.4353
 X360.4978
 Y52.4783
G0 Z25.0000
 X355.1305 Y54.5103
G1 Z0.0000
 X355.8265
 Y55.2617
 X355.1305
 X357.9436 Y55.6097
 Y55.5744
 X358.0243 Y55.0902
 X358.2614 Y54.7271
 X358.6346 Y54.4951
 X359.1288 Y54.4094
 X359.6533 Y54.4951
 X360.0467 Y54.7170
 X360.2988 Y55.0701
 X360.3896 Y55.5240
 X360.3492 Y55.8215
 X360.2383 Y56.0636
 X360.0567 Y56.2502
 X359.8147 Y56.3864
 X360.1425 Y56.6587
 X360.2585 Y57.0924
 X360.1828 Y57.4858
 X359.9659 Y57.7833
 X359.6129 Y57.9699
 X359.1288 Y58.0355
 X358.6749 Y57.9548
 X358.3269 Y57.7329
 X358.1000 Y57.3799
 X358.0243 Y56.9109
 Y56.8756
 X358.4731
 X358.5135 Y57.1983
 X358.6446 Y57.4303
 X358.8564 Y57.5715
 X359.1540 Y57.6220
 X359.4162 Y57.5816
 X359.6079 Y57.4757
 X359.7239 Y57.3042
 X359.7693 Y57.0722
 X359.7239 Y56.8251
 X359.6028 Y56.6587
 X359.3910 Y56.5578
 X359.1036 Y56.5276
 X358.9069 Y56.5326
 Y56.1342
 X359.1540 Y56.1443
 X359.4717 Y56.0989
 X359.7087 Y55.9779
 X359.8500 Y55.7812
 X359.9004 Y55.5240
 X359.8449 Y55.2315
 X359.6987 Y55.0146
 X359.4667 Y54.8784
 X359.1590 Y54.8330
 X358.8413 Y54.8835
 X358.6093 Y55.0348
 X358.4631 Y55.2768
 X358.4076 Y55.6097
G0 Z25.0000
 X361.6797
G1 Z0.0000
 Y55.5744
 X361.7603 Y55.0902
 X361.9974 Y54.7271
 X362.3706 Y54.4951
 X362.8648 Y54.4094
 X363.3893 Y54.4951
 X363.7827 Y54.7170
 X364.0348 Y55.0701
 X364.1256 Y55.5240
 X364.0853 Y55.8215
 X363.9743 Y56.0636
 X363.7928 Y56.2502
 X363.5507 Y56.3864
 X363.8785 Y56.6587
 X363.9945 Y57.0924
 X363.9188 Y57.4858
 X363.7020 Y57.7833
 X363.3489 Y57.9699
 X362.8648 Y58.0355
 X362.4109 Y57.9548
 X362.0629 Y57.7329
 X361.8360 Y57.3799
 X361.7603 Y56.9109
 Y56.8756
 X362.2092
 X362.2495 Y57.1983
 X362.3806 Y57.4303
 X362.5925 Y57.5715
 X362.8900 Y57.6220
 X363.1523 Y57.5816
 X363.3439 Y57.4757
 X363.4599 Y57.3042
 X363.5053 Y57.0722
 X363.4599 Y56.8251
 X363.3389 Y56.6587
 X363.1270 Y56.5578
 X362.8396 Y56.5276
 X362.6429 Y56.5326
 Y56.1342
 X362.8900 Y56.1443
 X363.2077 Y56.0989
 X363.4448 Y55.9779
 X363.5860 Y55.7812
 X363.6364 Y55.5240
 X363.5809 Y55.2315
 X363.4347 Y55.0146
 X363.2027 Y54.8784
 X362.8951 Y54.8330
 X362.5773 Y54.8835
 X362.3453 Y55.0348
 X362.1991 Y55.2768
 X362.1436 Y55.6097
G0 Z25.0000
 X365.6352 Y57.0769
G1 Z0.0000
 X365.8685 Y58.0103
 X365.6352
G0 Z25.0000
 X360.4978 Y60.0423
G1 Z0.0000
 Y103.0853
 X361.0007
 X360.4978 Y106.2603
 X359.9950 Y103.0853
G0 Z25.0000
M5 (stop spindle)
G04 P3 (wait for 3 seconds)
G0 Z25.0000
M2 (end program)
