;PYCAM-META-DATA: Filename: /home/gustavo/Downloads/Xmaqcnc.dxf
;PYCAM-META-DATA: Timestamp: 2017-07-03 19:27:56.703157
;PYCAM-META-DATA: Version: 0.5.1
;Estimated machine time: 12 minutes
G40 (disable tool radius compensation)
G49 (disable tool length compensation)
G80 (cancel modal motion)
G54 (select coordinate system 1)
G90 (disable incremental moves)
G21 (metric)
G61 (exact path mode)
F200.00000
S1000.00000
;PYCAM_TOOLPATH_SETTINGS: START
;[Bounds]
;maxz = 0.0
;maxx = 115.8863047
;maxy = 401.455383
;minx = -9.6260277
;miny = -35.586853
;minz = 0.0
;
;[Tool]
;torus_radius = 0.2
;speed = 1000.0
;shape = ToroidalCutter
;tool_radius = 1.0
;feedrate = 200.0
;
;[Process]
;engrave_offset = 0.0
;step_down = 1.5
;generator = EngraveCutter
;postprocessor = SimpleCutter
;milling_style = conventional
;material_allowance = 0.0
;pocketing_type = none
;path_direction = x
;
;PYCAM_TOOLPATH_SETTINGS: END
T2 M6
G0 Z25.0000
M3 (start spindle)
G04 P3 (wait for 3 seconds)
 X6.2603 Y0.0000
G1 Z0.0000
 X100.2603 Y38.0000
G0 Z25.0000
 Y0.0000
G1 Z0.0000
 X6.2603 Y38.0000
G0 Z25.0000
 Y50.0000
G1 Z0.0000
 X76.2603
 X46.2603 Y69.0000
 X76.2603 Y88.0000
G0 Z25.0000
 X6.2603
G1 Z0.0000
 X76.2603
G0 Z25.0000
 X31.2603 Y100.0000
G1 Z0.0000
 Y118.0000
G0 Z25.0000
 X6.2603 Y100.0000
G1 Z0.0000
 X46.2603
 Y118.0000
 X6.2603
G0 Z25.0000
 Y130.0000
G1 Z0.0000
 X46.2603
 Y148.0000
 X6.2603
 Y130.0000
G0 Z25.0000
 X11.3837 Y143.1867
G1 Z0.0000
 X0.0000 Y153.8813
G0 Z25.0000
 X46.2603 Y178.0000
G1 Z0.0000
 Y160.0000
 X6.2603
 Y178.0000
G0 Z25.0000
 Y190.0000
G1 Z0.0000
 X46.2603
 X6.2603 Y208.0000
 X46.2603
G0 Z25.0000
 X6.2603 Y238.0000
G1 Z0.0000
 Y220.0000
 X46.2603
 Y238.0000
G0 Z25.0000
 X9.4353 Y359.9950
G1 Z0.0000
 X6.2603 Y360.4978
 X9.4353 Y361.0007
 Y360.4978
 X52.4783
G0 Z25.0000
 X54.5103 Y355.1305
G1 Z0.0000
 Y355.8265
 X55.2617
 Y355.1305
G0 Z25.0000
 X55.6097 Y357.9436
G1 Z0.0000
 X55.5744
 X55.0902 Y358.0243
 X54.7271 Y358.2614
 X54.4951 Y358.6346
 X54.4094 Y359.1288
 X54.4951 Y359.6533
 X54.7170 Y360.0467
 X55.0701 Y360.2988
 X55.5240 Y360.3896
 X55.8215 Y360.3492
 X56.0636 Y360.2383
 X56.2502 Y360.0567
 X56.3864 Y359.8147
 X56.6587 Y360.1425
 X57.0924 Y360.2585
 X57.4858 Y360.1828
 X57.7833 Y359.9659
 X57.9699 Y359.6129
 X58.0355 Y359.1288
 X57.9548 Y358.6749
 X57.7329 Y358.3269
 X57.3799 Y358.1000
 X56.9109 Y358.0243
 X56.8756
 Y358.4731
 X57.1983 Y358.5135
 X57.4303 Y358.6446
 X57.5715 Y358.8564
 X57.6220 Y359.1540
 X57.5816 Y359.4162
 X57.4757 Y359.6079
 X57.3042 Y359.7239
 X57.0722 Y359.7693
 X56.8251 Y359.7239
 X56.6587 Y359.6028
 X56.5578 Y359.3910
 X56.5276 Y359.1036
 X56.5326 Y358.9069
 X56.1342
 X56.1443 Y359.1540
 X56.0989 Y359.4717
 X55.9779 Y359.7087
 X55.7812 Y359.8500
 X55.5240 Y359.9004
 X55.2315 Y359.8449
 X55.0146 Y359.6987
 X54.8784 Y359.4667
 X54.8330 Y359.1590
 X54.8835 Y358.8413
 X55.0348 Y358.6093
 X55.2768 Y358.4631
 X55.6097 Y358.4076
G0 Z25.0000
 Y361.6797
G1 Z0.0000
 X55.5744
 X55.0902 Y361.7603
 X54.7271 Y361.9974
 X54.4951 Y362.3706
 X54.4094 Y362.8648
 X54.4951 Y363.3893
 X54.7170 Y363.7827
 X55.0701 Y364.0348
 X55.5240 Y364.1256
 X55.8215 Y364.0853
 X56.0636 Y363.9743
 X56.2502 Y363.7928
 X56.3864 Y363.5507
 X56.6587 Y363.8785
 X57.0924 Y363.9945
 X57.4858 Y363.9188
 X57.7833 Y363.7020
 X57.9699 Y363.3489
 X58.0355 Y362.8648
 X57.9548 Y362.4109
 X57.7329 Y362.0629
 X57.3799 Y361.8360
 X56.9109 Y361.7603
 X56.8756
 Y362.2092
 X57.1983 Y362.2495
 X57.4303 Y362.3806
 X57.5715 Y362.5925
 X57.6220 Y362.8900
 X57.5816 Y363.1523
 X57.4757 Y363.3439
 X57.3042 Y363.4599
 X57.0722 Y363.5053
 X56.8251 Y363.4599
 X56.6587 Y363.3389
 X56.5578 Y363.1270
 X56.5276 Y362.8396
 X56.5326 Y362.6429
 X56.1342
 X56.1443 Y362.8900
 X56.0989 Y363.2077
 X55.9779 Y363.4448
 X55.7812 Y363.5860
 X55.5240 Y363.6364
 X55.2315 Y363.5809
 X55.0146 Y363.4347
 X54.8784 Y363.2027
 X54.8330 Y362.8951
 X54.8835 Y362.5773
 X55.0348 Y362.3453
 X55.2768 Y362.1991
 X55.6097 Y362.1436
G0 Z25.0000
 X57.0769 Y365.6352
G1 Z0.0000
 X58.0103 Y365.8685
 Y365.6352
G0 Z25.0000
 X60.0423 Y360.4978
G1 Z0.0000
 X103.0853
 Y361.0007
 X106.2603 Y360.4978
 X103.0853 Y359.9950
G0 Z25.0000
M5 (stop spindle)
G04 P3 (wait for 3 seconds)
G0 Z25.0000
M2 (end program)
